libs/ui/packages/crypto-icons/src/svg/XMG.svg

<svg width="24" height="24" viewBox="0 0 24 24" fill="none">
<path fill-rule="evenodd" clip-rule="evenodd" d="M17.25 14.655L16.1378 18.75H6.75V18.0653L11.8425 12.276L6.85275 5.994V5.25H16.101L16.4235 8.439H15.831C15.4402 7.71225 15.1088 7.1685 14.835 6.80775C14.562 6.447 14.3183 6.22275 14.1038 6.1335C13.9523 6.06 13.7438 6.0075 13.4783 5.976C13.1612 5.94111 12.8424 5.92483 12.5235 5.92725H9.89625L13.833 10.8322V11.0685L8.967 16.5922H14.5208C14.7937 16.5922 15.0443 16.527 15.2708 16.3973C15.4972 16.2668 15.6938 16.1032 15.8595 15.9067C16.0336 15.7036 16.1881 15.4844 16.3207 15.252C16.4628 15.0054 16.5876 14.7493 16.6943 14.4855L17.25 14.655Z" fill="white"/>
<path fill-rule="evenodd" clip-rule="evenodd" d="M17.25 14.655L16.1378 18.75H6.75V18.0653L11.8425 12.276L6.85275 5.994V5.25H16.101L16.4235 8.439H15.831C15.4402 7.71225 15.1088 7.1685 14.835 6.80775C14.562 6.447 14.3183 6.22275 14.1038 6.1335C13.9523 6.06 13.7438 6.0075 13.4783 5.976C13.1612 5.94111 12.8424 5.92483 12.5235 5.92725H9.89625L13.833 10.8322V11.0685L8.967 16.5922H14.5208C14.7937 16.5922 15.0443 16.527 15.2708 16.3973C15.4972 16.2668 15.6938 16.1032 15.8595 15.9067C16.0336 15.7036 16.1881 15.4844 16.3207 15.252C16.4628 15.0054 16.5876 14.7493 16.6943 14.4855L17.25 14.655Z" fill="#004A80"/>
</svg>

<svg width="24" height="24" viewBox="0 0 24 24" fill="none"><path fill="#fff" fill-rule="evenodd" d="m17.25 14.655-1.112 4.095H6.75v-.685l5.092-5.789-4.99-6.282V5.25h9.249l.323 3.189h-.593q-.585-1.09-.996-1.631-.41-.54-.731-.675a2 2 0 0 0-.626-.157 8 8 0 0 0-.954-.049H9.896l3.937 4.905v.236l-4.866 5.524h5.554q.41 0 .75-.195.34-.196.588-.49.263-.306.462-.655.213-.37.373-.767z" clip-rule="evenodd"/><path fill="#004a80" fill-rule="evenodd" d="m17.25 14.655-1.112 4.095H6.75v-.685l5.092-5.789-4.99-6.282V5.25h9.249l.323 3.189h-.593q-.585-1.09-.996-1.631-.41-.54-.731-.675a2 2 0 0 0-.626-.157 8 8 0 0 0-.954-.049H9.896l3.937 4.905v.236l-4.866 5.524h5.554q.41 0 .75-.195.34-.196.588-.49.263-.306.462-.655.213-.37.373-.767z" clip-rule="evenodd"/></svg>
